dist/img/svg/ic_catalog.svg

<svg width="25" height="24" viewBox="0 0 25 24" fill="none" xmlns="http://www.w3.org/2000/svg">
<path d="M9.83337 2H4.00012C3.08362 2 2.33337 2.75 2.33337 3.66675V9.5C2.33337 10.4167 3.08362 11.1667 4.00012 11.1667H9.83337C10.7496 11.1667 11.5001 10.4167 11.5001 9.5V3.66675C11.5001 2.75 10.7496 2 9.83337 2ZM9.83337 9.5H4.00012V3.66675H9.83337V9.5ZM9.83337 12.8335H4.00012C3.08362 12.8335 2.33337 13.5837 2.33337 14.5V20.3333C2.33337 21.2498 3.08362 22 4.00012 22H9.83337C10.7496 22 11.5001 21.2498 11.5001 20.3333V14.5C11.5001 13.5837 10.7496 12.8335 9.83337 12.8335ZM9.83337 20.3333H4.00012V14.5H9.83337V20.3333ZM13.1666 2H17.3334V3.66675H13.1666V2ZM13.1666 8.66675H19.0001V10.3335H13.1666V8.66675ZM13.1666 5.33325H22.3334V7H13.1666V5.33325ZM13.1666 12.8335H22.3334V14.5H13.1666V12.8335ZM13.1666 19.5H19.0001V21.1667H13.1666V19.5ZM13.1666 16.1667H17.3334V17.8333H13.1666V16.1667Z" fill="#01AFD2"/>
</svg>

<svg width="25" height="24"   xmlns="http://www.w3.org/2000/svg"><path d="M9.833 2H4c-.916 0-1.667.75-1.667 1.667V9.5c0 .917.75 1.667 1.667 1.667h5.833c.917 0 1.667-.75 1.667-1.667V3.667C11.5 2.75 10.75 2 9.833 2zm0 7.5H4V3.667h5.833V9.5zm0 3.334H4c-.916 0-1.667.75-1.667 1.666v5.833C2.333 21.25 3.083 22 4 22h5.833c.917 0 1.667-.75 1.667-1.667V14.5c0-.916-.75-1.666-1.667-1.666zm0 7.5H4V14.5h5.833v5.833zM13.167 2h4.166v1.667h-4.166V2zm0 6.667H19v1.667h-5.833V8.667zm0-3.334h9.166V7h-9.166V5.333zm0 7.5h9.166V14.5h-9.166v-1.666zm0 6.667H19v1.667h-5.833V19.5zm0-3.333h4.166v1.666h-4.166v-1.666z" /></svg>
